X: 504
T: VARIATIONS sur un Air national allemand pour le Pianoforte	 Oeuvre posthume.
C: Fryderyk Chopin
%%abc-version 2.0
%%abcx-abcm2ps-target-version 5.9.1 (29 Sep 2008)
%%abc-creator hum2abc beta
%%abcx-conversion-date 2021/10/03 11:23:54
%%abc-edited-by Jędrzej Mróz
%%abc-edited-by Mateusz Mrugas
%%abcx-initial-encoding-date 2020-02-29
%%humdrum-veritas 4064564764
%%humdrum-veritas-data 1516031459
%%linebreak <none>
%%barnumbers 0
L: 1/8
M: C
N: Derived from VGNA-1-HAc.krn
Q: "([half-dot] = 72.)"
%%staves {1 2}
V: 1 clef=treble
V: 2 clef=bass
K: E
[V:1] z b'//g'//b'//e'// g'//e'//g'//b// e'//b//e'//g// b//g//b//e// g//e//g//B// e//B//e//G// B//G//B//E// | 
[V:2] [E,E,,] z!arpeggio![G2B,2E,2]z4 | 
[V:1] !wedge!B, .[gBG].[fBA].[eBG] [dBF] z z [^ecB^E] | 
[V:2] z .[B,E,].[B,D,].[B,E,] [B,B,,] z z [CG,C,] | 
[V:1] !wedge!!arpeggio![fcAF] c''//a'//c''//f'// a'//f'//a'//c'// f'//c'//f'//a// c'//a//c'//f// a//f//a//c// f//c//f//A// c//A//c//F// | 
[V:2] !arpeggio![A,F,C,F,,] z!arpeggio![A2C2F,2]z4 | 
[V:1] !wedge!C .[acA].[gcB].[fcA]!arpeggio![^e2c2G2^E2]z2 | 
[V:2] z .[CF,].[C^E,].[CF,]!arpeggio![C2G,2C,2]z2 | 
[V:1] !accent!=e2-(17:16:17e/8f/8e/8d/8e/8f/8g/8a/8b/8c'/8=d'/8^d'/8e'/8f'/8g'/8a'/8b'/8 !wedge!c'' !accent!c- c/8=d/8c/8^B/8c/8^d/8^e/8f/8g/8a/8b/8c'/8^d'/8^e'/8f'/8g'/8 | 
[V:2] z2[K:clef=treble][B2G2E2=D2][A2E2C2][G2^E2C2B,2][K:clef=bass] | 
[V:1] a' !accent!A- (17:16:17A/8B/8A/8G/8A/8B/8c/8=d/8e/8f/8=g/8^g/8a/8b/8c'/8=d'/8e'/8 !wedge!f' z z3/ F,/ | 
[V:2] [F2C2A,2][=E2C2A,2=G,2][=DA,F,] zz2 | 
[V:1] F2-F/8=G/8F/8^E/8F/8^G/8^A/8B/8c/8=d/8=e/8f/8^g/8^a/8b/8c'/8 =d' !accent!=D- =D/8=E/8D/8^C/8D/8E/8F/8=G/8=A/8B/8=c/8=d/8e/8f/8=g/8=a/8 | 
[V:2] z2[C2^A,2F,2E,2][B,2F,2=D,2][=A,2F,2D,2=C,2] | 
[V:1] .b B,- B,/8=C/8B,/8^A,/8B,/8^C/8D/8E/8F/8=G/8=A/8^A/8B/8=d/8=c/8B/8 {/B}=g2z2 | 
[V:2] [=G,2=D,2B,,2][F,2^D,2B,,2A,,2][E,2B,,2=G,,2]z2 | 
[V:1] [=g8e8=c8=G8] | 
[V:2] =C,,/=C,/E,/=G,/ =C/^D,/E,/A,/ G,/B,/C/=D/E2 | 
[V:1] !accent![e6=c6=G6E6]^A2 | 
[V:2] =C,,/=C,/E,/=G,/ =C/^D,/E,/A,/ G,/B,/C/=D/E2 | 
[V:1] [B2^D2]z gx4 & x3g//=A//-B//-d//-[f3d3B3A3][eBG] | 
[V:2] [B,2B,,2].B,,2.B,,2.B,,2 | 
[V:1] x2>G2[F3D3B,3A,3][EB,G,] & [d2B2F2]z E//A,//-B,//-D//-x4 | 
[V:2] B,,4x4 & z2.B,,,2.B,,,2.B,,,2 | 
[V:1] [DB,F,] g'f' e'd' c'b g & x g'//a//-b//-d'//- [d'ba] e'//f//-a//-b//- [baf] c'//d//-f//-a//- [afd] g//A//-B//-d//- | 
[V:2] [B,,2B,,,2]z2z4 | 
[V:1] f ed G!fermata![F3/D3/B,3/A,3/] B,/ & [dBA] e//F//-A//-B//- [BAF] G//A,//-B,//-D//-x2 |]  
[V:2] z4!fermata!z2 |]  
[V:1] [M:C|]E3/G/ [I:setbarnb 15]| 
[V:2] [M:C|]z2 | 
[V:1] .B2.B2.B2.B2 | 
[V:2] E,B,[GE]B, [AD]B,[AD]B, | 
[V:1] Bggfe2B3/B/ | 
[V:2] E,B,[GE]B, [GE]B,[GE]B, | 
[V:1] Baagf2gf | 
[V:2] B,,B,[AD]B, [AD]B,[BD]A | 
[V:1] e2z2z2 :|]|:  
[V:2] [GE]B,G,B,E,2 :|]|:  
[V:1] [G3/E3/][B/G/] [I:setbarnb 19]| 
[V:2] z2 | 
[V:1] [A2F2][GE][FD][A2F2][GE][FD] | 
[V:2] z .B,.B,.B, z .B,.B,.B, & B,,4B,,4 | 
[V:1] [GE][BG] BeB2[G3/E3/][B/G/] & x2G2G2x2 | 
[V:2] B,2z2z4 & E,2x6 | 
[V:1] [A2F2][GE][FD][A2F2][GE][FD] | 
[V:2] z .B,.B,.B, z .B,.B,.B, & B,,4B,,4 | 
[V:1] .[GE].[BG].[eB].[ge] .[bg] z [G3/E3/][A/F/] | 
[V:2] B,2z2z4 & E,2x6 | 
[V:1] .[B2G2].B2.B2.B2 | 
[V:2] E,B,[GE]B, [AD]B,[AD]B, | 
[V:1] Bggfe2B3/B/ | 
[V:2] E,B,[GE]B, [GE]B,[GE]B, | 
[V:1] Baagf2gf | 
[V:2] B,,B,[AD]B, [AD]B,[BD]A | 
[V:1] e2z2z2 :|]  
[V:2] [GE]B,G,B,E,2 :|]  
[V:1] [M:C|](3B^AB [I:setbarnb 27]]|:  
[V:2] [M:C|]z2 ]|:  
[V:1] (3!trill!cBG (3BbB (3!trill!cBa (3fbB | 
[V:2] E,2[E2G,2]B,,2[F2B,2] | 
[V:1] (3GBb (3egb (3b'e'g' (3be'g | 
[V:2] !wedge!E,2[K:clef=treble][G2B,2][E2G,2]z2[K:clef=bass] | 
[V:1] (3adc' (3ba'g' (3f'ac' (3bg'f' |[1 
[V:2] !wedge!B,,2[A2D2B,2]!wedge!B,,2[D2A,2] | 
[V:1] (3.e'.e.e' (3.d'.c'.b (3.a.g.f (3.e.d.c :|][2 
[V:2] [E2B,2G,2E,2][E2C2A,2E,2][D4B,4A,4F,4E,4] :|]  
[V:1] (3e'gc' (3beBE2 ]|: 
[V:2] .[E2G,2E,2][G2B,2][G,2E,2] ]|:  
[V:1] (3!trill!B^AB [I:setbarnb 32]| 
[V:2] z2 | 
[V:1] a2f2a>gf2 & (3fce (3dcB (3fce (3dcB | 
[V:2] .B,,2[K:clef=treble](3FGA[K:clef=bass].B,,2[K:clef=treble](3FGA & x2B,2x2B,2 | 
[V:1] (3[ge]BG (3Bbe (3gbb' (3e'g'b | 
[V:2] G2[K:clef=bass]!accent![G2B,2E,2][E2G,2E,2]z2 & E2x6 | 
[V:1] x2f2a>^g (3!trill!fef & (3[af][g^e][=g=e] (3dcB (3fced2 | 
[V:2] B,,2[K:clef=treble](3FGA[K:clef=bass]!wedge!B,,2[K:clef=treble](3FGA & x2B,2x2B,2 | 
[V:1] (3c'b^a (3c'ba (3.b.=a.g (3.f.e.d & =e2=e2=e2x2 | 
[V:2] G>^^F G>FG2z2[K:clef=bass] & E6x2 | 
[V:1] (3!trill!cBG (3BbB (3!trill!cBa (3fbB | 
[V:2] E,2[G,2E2]B,,2[B,2F2] | 
[V:1] (3GBb (3egb (3b'e'g' (3be'g | 
[V:2] .E,2[K:clef=treble][G2B,2][E2G,2]z2[K:clef=bass] | 
[V:1] (3adc' (3ba'g' (3f'ac' (3bg'f' | 
[V:2] B,,2[A2D2B,2]B,,2[D2A,2] | 
[V:1] (3e'gc' (3beBE2 :|]  
[V:2] .[E2G,2E,2][G2B,2][G,2E,2] :|]  
[V:1] [M:C|]B2 [I:setbarnb 40]]|:  
[V:2] [M:C|]z2 ]|:  
[V:1] !wedge![bg]{/d}[cG][BG][bg] !wedge![ba]{/d}[cA][BA][ba] | 
[V:2] !wedge!E,,[B,E,][EB,][E,E,,] !wedge![D,D,,][B,D,][FB,][D,D,,] | 
[V:1] !wedge![bg][g'bg][g'bg][f'ba] [e'bg][bge][geB][eBG] | 
[V:2] !wedge![E,E,,][K:clef=treble] .[BB,].[BB,].[BD][B2E2]z2[K:clef=bass] | 
[V:1] !wedge![BA] [a'ba][a'ba][g'bg] [f'd'ba] .[fdBA][gdBA][fdBA] |[1 
[V:2] B,,[K:clef=treble].[BB,].[BD].[BE] [BF][K:clef=bass] B,B,B, | 
[V:1] [eBG] [^A^^FE][BGE] [FEC][GEB,] [DB,][EB,] z :|][2 
[V:2] [EB,E,] CB, ^A,B, =A,G, E, :|]  
[V:1] [eBG] [^A^^FE][BGE] [GD=A,][EG,] [GE] ||  
[V:2] [EE,] CB, B,,E, z ||  
[V:1] [BG] [bg] [I:setbarnb 45]]|: 
[V:2] z2 ]|:  
[V:1] !wedge![af]{/d}[cA][BA][bd] !wedge![af]{/d}[cA][BA][bd] | 
[V:2] !wedge![B,B,,][FB,][FB,][B,B,,] !wedge![B,,B,,,][FB,][FB,][B,B,,] | 
[V:1] !wedge![ge][bB][bg][e'e] !wedge![e'g] {/d'} [c'^^f][bg] B | 
[V:2] [E,E,,] z [EG,][K:clef=treble][GB,] B ^AB z[K:clef=bass] & x2x2E3x | 
[V:1] !wedge![af]{/d}[cA][BA][bd] !wedge![af]{/d}[cA][BA][bd] | 
[V:2] !wedge![B,B,,][FB,][FB,][B,B,,] !wedge![B,,B,,,][FB,][FB,][B,B,,] | 
[V:1] .[ge].[bg].[e'b].[g'e'] .[b'g'] z z [ge] | 
[V:2] [E,E,,] .[G,E,].[B,G,].[EB,][K:clef=treble] .[GE].[BG].[eB] z[K:clef=bass] | 
[V:1] !wedge![bg]{/d}[cG][BG][bg] !wedge![ba]{/d}[cA][BA][ba] | 
[V:2] !wedge![E,E,,][B,E,][EB,][E,E,,] !wedge![^D,^D,,][B,D,][FB,][D,D,,] | 
[V:1] !wedge![bg] [g'bg][g'bg][f'ba] [e'bg] [bge][geB][eBG] | 
[V:2] !wedge![E,E,,][K:clef=treble] [BB,][BB,][BD] [BE] zz2[K:clef=bass] | 
[V:1] [BA] [a'ba][a'ba][g'bg] [f'd'ba] .[fdBA][gdBA][fdBA] |[1 
[V:2] !wedge![B,,B,,,][K:clef=treble] [BB,][BD][BE] [BF][K:clef=bass] B,B,B, | 
[V:1] [eBG] [^A^^FE][BGE] [GD=A,][EG,] {/d} [c=A][BG] [bg] :|][2 
[V:2] [EB,E,] CB, B,,E,z2z :|]  
[V:1] [eBG] [^A^^FE][BGE] [GD=A,][EG,] z || 
[V:2] [EB,E,] CB, B,,E, z[K:clef=bass] ||  
[V:1] [M:C|]z2 [I:setbarnb 54]]|:  
[V:2] [M:C|]B,,2 ]|:  
[V:1] .B2.B2.B2.B2 & G4A4 | 
[V:2] !wedge!E,,/B,,/E,/F,/ G,/E,/B,,/B,/ !wedge!D,,/B,,/F,/G,/ A,/F,/B,,/B,/ | 
[V:1] Bg [gB][fA][e2B2]z [BG] & G2x6 | 
[V:2] !wedge!E,,/B,,/E,/F,/ G,/B,/E/F/ G/E/B,/G,/ E,/B,,/G,,/C,/ | 
[V:1] Ba agf2!arpeggio!gf & A2^d2d2!arpeggio![d2B2A2] |[1 
[V:2] B,,/F,/A,/C/[K:clef=treble] B,/F/A/c/ B/A/F/D/[K:clef=bass] B,/A,/F,/B,,/ | 
[V:1] !wedge![e2G2][g2B2][e2G2][G3/E3/][A/F/] :|][2 
[V:2] E,/B,/G,/E,/ D,/=D,/C,/=C,/ B,,/A,,/G,,/^C,/ B,,/A,,/G,,/F,,/ :|]  
[V:1] .[e2G2][g2B2][e2G2] || 
[V:2] E,/B,/G,/E,/ B,,/G,,/A,,/B,,/E,,2 ||  
[V:1] [g3/e3/][b/g/] [I:setbarnb 59]| 
[V:2] z2 | 
[V:1] [a2f2][ge][fd][a2f2][ge][fd] | 
[V:2] !wedge!B,,/B,/^A,/B,/ !accent!=C/B,/F,/=A/ !wedge!B,,/B,/^A,/B,/ !accent!^C/B,/F,/A/ | 
[V:1] [ge][bg] [bg][e'g]!accent![b2g2][g3/e3/][b/g/] | 
[V:2] E,/B,/E/G/ E,/B,/E/B/ G/E/B,/G,/ E,/B,,/G,,/C,/ | 
[V:1] {/b}[a2f2][ge][fd] a3/b//a// [ge][fd] & x4f2x2 | 
[V:2] B,,/B,/^A,/B,/ =C/B,/F,/A/ B,,/B,/A,/B,/ ^C/B,/F,/A/ | 
[V:1] [ge][bg] [e'b][g'e'] [b'g'] z [G3/E3/][A/F/] | 
[V:2] E,/B,/E/B/ G/E/B,/G,/ E,/B,,/G,,/C,/ B,,/A,,/G,,/F,,/ | 
[V:1] .B2.B2.B2.B2 & G4A4 | 
[V:2] !wedge!E,,/B,,/E,/F,/ G,/E,/B,,/B,/ !wedge!D,,/B,,/F,/G,/ A,/F,/B,,/B,/ | 
[V:1] Bg [gB][fA][e2B2]z [BG] & G2x6 | 
[V:2] E,,/B,,/E,/F,/ G,/B,/E/F/ G/E/B,/G,/ E,/B,,/G,,/C,/ | 
[V:1] Ba ag[f2d2][gd]f & A2d2x2[B2A2] | 
[V:2] B,,/F,/A,/C/ B,/F/A/c/ B/A/F/D/ B,/A,/F,/B,,/ | 
[V:1] !wedge![e2G2][g2B2][e2G2] :|]  
[V:2] E,/B,/G,/E,/ B,,/G,,/A,,/B,,/E,,2 :|]  
[V:1]  [K:G] [M:C]B2 [I:setbarnb 67]]|:  
[V:2]  [K:G] [M:C]z2 ]|:  
[V:1] [K:clef=bass].B,2.B,2.B,2.B,2[K:clef=treble] | 
[V:2] z2z!accent!E,2!accent!^D,2!accent!F,- & z2G,,2F,,2A,,2 | 
[V:1] B,GGFE2!accent!E2 & B,6C2 | 
[V:2] F,2x6 & G,,B,,E,F,G,2!accent![G,2C,2] | 
[V:1] !trill!=F{/EF}AGF- FE^D^F & C4B,3A, |[1 
[V:2] A,=F,G,A,- A,G,^F,2 & A,,4B,,4 | 
[V:1] [E2G,2]z2z4 :|][2 
[V:2] E,B,,A,,B,, G,,F,,E,,2 :|]  
[V:1] [E2G,2]z2z2!arpeggio!E=D ]|: 
[V:2] x6!arpeggio![C2F,2] & E,B,,A,,G,, F,,E,,D,,2 ]|:  
[V:1] !arpeggio![d2G2D2-][cF][BG] {/^c2d2e2}d2{/d} =cB & x4G2FG | 
[V:2] x2D2D4 & !arpeggio![B,2D,2G,,2]A,G,B,2A,G, | 
[V:1] Ad [dAF][e2^c2A2G2]<!arpeggio![f2d2A2F2]D & F2x6 | 
[V:2] {/D,} DA,F,E, D,A,,D,, z | 
[V:1] !accent!!arpeggio![B2D2B,2]{/B} [AC][GB,]B2{/D} AG & x2D2{/^C2D2E2}D2=CB, | 
[V:2] !arpeggio![G,2D,2G,,2][F,D,]G, G,,D,F,G, & x4G,,4 | 
[V:1] FB [BFD][^c2^A2F2E2]<[^d2B2F2^D2]z & ^D2x6 | 
[V:2] {/B,,} B,F,^D,^C, B,,F,,B,,, z | 
[V:1] [K:clef=bass].B,2.B,2.B,2.B,2[K:clef=treble] | 
[V:2] z2z!accent!E,2!accent!^D,2!accent!F,- & z2G,,2F,,2A,,2 | 
[V:1] B,GGFE2!accent!E2 & B,6C2 |[1 
[V:2] F,2x4!accent!G,2 & G,,4x2x2 | 
[V:1] =FAGF- FE^D^F & C4B,3A, | 
[V:2] A,=F,G,A,- A,G,x2 & A,,4B,,2^F,2 | 
[V:1] [E2G,2]z2z2E=D :|][2 
[V:2] x6[C2F,2] & E,B,,A,,G,, F,,E,,D,,2 :|]  
[V:1] =FAGF- F!accent!E2!fermata!^D & C4B,2A,2 || 
[V:2] A,=F,G,A,- A,G,!fermata!^F,2 & A,,4B,,4 ||  
[V:1]  [K:E] [M:3/4]!accent!B2>G2cz/B/ | 
[V:2]  [K:E] [M:3/4]E,6 & E,2[B,2G,2]B,,2 | 
[V:1] !accent!B2>F2cz/B/ | 
[V:2] D,6 & D,2[B,2A,2]B,,2 | 
[V:1] {/B}.g2efg[c'e] | 
[V:2] E,2[B,2G,2]B,,2 | 
[V:1] !accent![b4g4]z2 | 
[V:2] !wedge!E,,2B,2[E2G,2] | 
[V:1] {/f}a'2!trill!f'2^e'g' | 
[V:2] B,,2[D2A,2F,2][^^C2B,2G,2] | 
[V:1] f'=e'd'c'^bd' | 
[V:2] B,,2[D2A,2F,2][D2A,2F,2] | 
[V:1] c'=bagf^e | 
[V:2] B,,2[D2A,2F,2][D2A,2F,2] | 
[V:1] gf=edc=c | 
[V:2] B,,2[D2A,2F,2]z2 | 
[V:1] B2GA^A^c | 
[V:2] E,6 & E,2[B,2G,2]B,,2 | 
[V:1] B2F=A^Ac | 
[V:2] D,6 & D,2[B,2A,2]B,,2 | 
[V:1] Bgdfec' | 
[V:2] !wedge!E,2B,2[E2G,2] | 
[V:1] !accent![b4g4][^a2^^f2] | 
[V:2] .E,,2B,2[E2G,2] | 
[V:1] [=a2^f2]{/f'd-}[f'2d2][e'2-f2] | 
[V:2] .B,,2A,2[D2F,2] | 
[V:1] [e'2a2]{/d'd-}[d'2d2]!accent![c'2-f2] | 
[V:2] .B,,2A,2[D2F,2] | 
[V:1] [c'2a2]>[b2g2][af][fB] | 
[V:2] B,,2[D2A,2F,2]!arpeggio![D2A,2B,,2] | 
[V:1] [e2G2]z2 ||  
[V:2] [E2E,2]E,,2 ||  
[V:1] [G2E2] [I:setbarnb 97]| 
[V:2] z2 | 
[V:1] !accent!A2>G2F2 & C4C2 | 
[V:2] F,,C,A,F,,C,A, | 
[V:1] !accent!A2>G2F2 & D4D2 | 
[V:2] F,,!accent!=C,A,F,,B,,A, | 
[V:1] [G2E2][B2G2][e2G2] | 
[V:2] E,,B,,E,B,G,E, | 
[V:1] [e4G4][G2E2] | 
[V:2] B,,^A,,C,B,,=A,,G,, | 
[V:1] A2>G2F2 & E4E2 | 
[V:2] xC,2x=C,2 & F,,C,A,F,,=C,A, | 
[V:1] A2>G2F2 & D4D2 | 
[V:2] xB,,2xB,,2 & F,,B,,A,F,,B,,A, | 
[V:1] .G2.B2.e2 & E2G2B2 | 
[V:2] E,,B,,E,B,G,E, | 
[V:1] .g2z2z2 & e2x4 | 
[V:2] ECB,A,G,F, | 
[V:1] !accent!B2>G2cz/B/ | 
[V:2] E,6 & E,2[B,2G,2]B,,2 | 
[V:1] !accent!B2>F2cz/B/ | 
[V:2] D,6 & D,2[B,2A,2]B,,2 | 
[V:1] {/B}g2efg[c'e] | 
[V:2] E,2B,2[E2G,2] | 
[V:1] !accent![b4g4]z2 | 
[V:2] E,,2B,2[E2G,2] | 
[V:1] {/f}a'2!trill!f'2^e'g' | 
[V:2] B,,2[D2A,2F,2][^^C2B,2G,2] | 
[V:1] f'=e'd'c'^bd' | 
[V:2] B,,2[D2A,2F,2][D2A,2F,2] | 
[V:1] c'=bagf^e | 
[V:2] B,,2[D2A,2F,2][D2A,2F,2] | 
[V:1] gz/f/=edc=c | 
[V:2] B,,2[D2A,2F,2]z2 | 
[V:1] .B2GA^Ac | 
[V:2] E,6 & E,2[B,2G,2]B,,2 | 
[V:1] {/Bc}B2F=A^Ac | 
[V:2] D,6 & D,2[B,2A,2]B,,2 | 
[V:1] Bgdfec' | 
[V:2] E,2B,2[E2G,2] | 
[V:1] [b4g4][^a2^^f2] | 
[V:2] E,,2B,2[E2G,2] | 
[V:1] [=a2^f2]{/f'd-}[f'2d2]!accent![e'2-f2] | 
[V:2] B,,2A,2[D2F,2] | 
[V:1] [e'2a2]{/d'd-}[d'2d2]!accent![c'2-f2] | 
[V:2] B,,2A,2[D2F,2] | 
[V:1] [c'2a2]>[b2g2][af]z/[f/B/] | 
[V:2] B,,2[D2A,2F,2]!arpeggio![D2A,2B,,2] | 
[V:1] [e2G2]z2B2 | 
[V:2] [E2E,2]E,,2z2 | 
[V:1] !accent!A2>G2F2 & C4C2 | 
[V:2] F,,C,A,F,,C,A, | 
[V:1] !accent!A2>G2F2 & D4D2 | 
[V:2] F,,=C,A,F,,B,,A, | 
[V:1] G2B2e2 & E2G2G2 | 
[V:2] E,,B,,E,B,G,E, | 
[V:1] e4G2 & G4E2 | 
[V:2] B,,^A,,C,B,,=A,,G,, | 
[V:1] !accent!A2>G2F2 & E4E2 | 
[V:2] xC,2x=C,2 & F,,C,A,F,,=C,A, | 
[V:1] !accent!A2>G2F2 & D4D2 | 
[V:2] xB,,2xB,,2 & F,,B,,A,F,,B,,A, | 
[V:1] .G2.B2.e2 & E2G2B2 | 
[V:2] E,,B,,E,B,G,E, | 
[V:1] .g2z2GA & e2x4 | 
[V:2] ECB,A,G,F, | 
[V:1] !accent!B2>{/G} G2cz/B/ | 
[V:2] E,6 & E,2[B,2G,2]B,,2 | 
[V:1] !accent!B2>F2cz/B/ | 
[V:2] D,6 & D,2[B,2A,2]B,,2 | 
[V:1] {/B}g2efg[c'e] | 
[V:2] E,2B,2[E2G,2] | 
[V:1] !accent![b4g4]z2 | 
[V:2] E,,2B,2[E2G,2] | 
[V:1] {/f}.a'2!trill!f'2^e'g' | 
[V:2] B,,2[D2A,2F,2][^^C2B,2G,2] | 
[V:1] f'=e'd'c'^bd' | 
[V:2] B,,2[D2A,2F,2][D2A,2F,2] | 
[V:1] c'=bagf^e | 
[V:2] B,,2[D2A,2F,2][D2A,2F,2] | 
[V:1] gz/f/=edc=c | 
[V:2] B,,2[D2A,2F,2]z2 | 
[V:1] B2GA^Ac | 
[V:2] E,6 & E,2[B,2G,2]B,,2 | 
[V:1] B{/cd}cBFcB | 
[V:2] D,6 & D,2[B,2A,2]B,,2 | 
[V:1] xg2fe2 & BgGfec' | 
[V:2] E,2B,2[E2G,2] | 
[V:1] b6 & !accent!^e4c2 | 
[V:2] C,2C2[^E2G,2] | 
[V:1] xa2gf2 & caAgf=d' | 
[V:2] F,2C2[F2A,2] | 
[V:1] c'6 & [^^f4c'4]d2 | 
[V:2] D,2D2[^^F2^A,2] | 
[V:1] [b2g2]bc'd'g' | 
[V:2] G,2[K:clef=treble]D2[G2B,2] | 
[V:1] .f'2abc'f' | 
[V:2] z2[A2F2C2][A2F2C2] & A,6 | 
[V:1] .e'2gabe' | 
[V:2] z2[G2E2][G2E2][K:clef=bass] & B,6 | 
[V:1] .d'2fgad' | 
[V:2] B,,2[D2A,2F,2]B,,2 | 
[V:1] {/b}b'2!trill!g'f'e'd' | 
[V:2] .G,,2B,2[E2G,2] | 
[V:1] c'bagfe | 
[V:2] A,,2C2[F2A,2] | 
[V:1] !accent!f6 & dcBAGF | 
[V:2] .B,,2A,2[D2^B,,2] | 
[V:1] [eE]Gcegc' | 
[V:2] C,2[E2C2G,2][E2C2G,2] | 
[V:1] {/b}b'2!trill!g'f'e'd' | 
[V:2] .G,,2B,2[E2G,2] | 
[V:1] c'bagfe | 
[V:2] A,,2C2[F2A,2] | 
[V:1] dcB^Bdc | 
[V:2] B,,2[D2A,2F,2]z2 | 
[V:1] =BAGACD | 
[V:2] z6 | 
[V:1] G2!accent!^^F4 & EB,^A,ECA, | 
[V:2] [E,2E,,2][E,4E,,4] | 
[V:1] G2!accent!^^F4 & B,E^A,ECA, | 
[V:2] [E,2E,,2][E,4E,,4] | 
[V:1] [GB,]EGBeg | 
[V:2] [E,2E,,2]z2z2 | 
[V:1] fBdfgf & A6 | 
[V:2] x2B,,4 & .B,2B,,2B,,,2 | 
[V:1] e2!accent!^^f4 & G2^AecA | 
[V:2] E,,2[E,4E,,4] | 
[V:1] g2^^f4 & Be^AecA | 
[V:2] [E2E,2]!accent![E,4E,,4] | 
[V:1] [gB]egbe'g' | 
[V:2] [E2E,2]z2z2[K:clef=treble] | 
[V:1] xa4x & f'abd'g'f' | 
[V:2] x2[K:clef=bass]!accent!B,4- & B2B,2B,,2 | 
[V:1] .e'ga^abb' | 
[V:2] B,2x4 & E,2z2B,2 | 
[V:1] f'=a^ac'bb' | 
[V:2] !accent!B,4B,2 & [A,6D,6] | 
[V:1] .g'a^ac'bb' | 
[V:2] [B,2G,2E,2][K:clef=treble]=A2G2 | 
[V:1] .d'a^ac'bb' | 
[V:2] F2G2F2[K:clef=bass] & [B,6A,6] | 
[V:1] e'a^ac'bb' | 
[V:2] [E2B,2G,2E,2]z2B,2 | 
[V:1] f'a^ac'bb' | 
[V:2] B,4B,2 & [A,6D,6] | 
[V:1] g'a^ac'bb' | 
[V:2] [B,2G,2E,2][K:clef=treble]=A2G2 | 
[V:1] d'a^ac'bb' | 
[V:2] F2G2F2[K:clef=bass] & [B,6A,6] | 
[V:1] e'b'g'f'e'b | 
[V:2] [E2B,2G,2E,2]z2z2 | 
[V:1] ebgfeB | 
[V:2] !arpeggio![G2B,2E,2]z2z2 | 
[V:1] EBGFEB, | 
[V:2] z6 | 
[V:1] E,B,G,F,E,B,, | 
[V:2] z6 | 
[V:1] z6 | 
[V:2] !wedge!E,,2z2z2 | 
[V:1] !arpeggio![g2e2B2G2]z2z2 | 
[V:2] !arpeggio![E2B,2E,2]z2z2 | 
[V:1] !accent!E,2z2z2 |]  
[V:2] [E,,2E,,,2]z2z2 |]
